X:142
T:Glory of the North,The. (p)1657.PLFD.143
M:C
L:1/8
Q:1/2=100
S:Playford, Dancing Master,Supplement to 3rd Ed.,1657
O:England
H:1657.
Z:Chris Partington.
K:F
f2f2fga2|gafge3c|(AB)(cA) (dc)(BA)|1G3FF4:|2G3FF3f|
|:f2(cA)f2(cA)|f2(cA)G2G2|(AB)(cA) (dc)(BA)|1G3FF3f:|2G3FF4|]
